img/icon/instagramm.svg

<svg width="60" height="61" viewBox="0 0 60 61" fill="none" xmlns="http://www.w3.org/2000/svg">
<g id="1">
<circle id="Ellipse" cx="30" cy="30.7158" r="30" fill="#EFF6F1"/>
<g id="Insta">
<path id="Vector" d="M33.6585 23.2631C34.7231 23.2661 35.7431 23.6747 36.4958 24.3996C37.2486 25.1244 37.6729 26.1067 37.6761 27.1318V34.8685C37.6729 35.8936 37.2486 36.8758 36.4958 37.6007C35.7431 38.3256 34.7231 38.7342 33.6585 38.7372H25.6243C24.5598 38.7342 23.5397 38.3256 22.787 37.6007C22.0342 36.8758 21.6099 35.8936 21.6068 34.8685V27.1318C21.6099 26.1067 22.0342 25.1244 22.787 24.3996C23.5397 23.6747 24.5598 23.2661 25.6243 23.2631H33.6585ZM33.6585 21.7158H25.6243C22.5309 21.7158 20 24.153 20 27.1318V34.8685C20 37.8473 22.5309 40.2845 25.6243 40.2845H33.6585C36.752 40.2845 39.2828 37.8473 39.2828 34.8685V27.1318C39.2828 24.153 36.752 21.7158 33.6585 21.7158Z" fill="#274C5B"/>
<path id="Vector_2" d="M34.8638 27.1326C34.6254 27.1326 34.3924 27.0645 34.1942 26.937C33.996 26.8095 33.8416 26.6282 33.7504 26.4162C33.6591 26.2041 33.6353 25.9708 33.6818 25.7457C33.7283 25.5205 33.8431 25.3137 34.0116 25.1514C34.1802 24.9891 34.3949 24.8786 34.6287 24.8338C34.8625 24.789 35.1048 24.812 35.325 24.8999C35.5452 24.9877 35.7334 25.1365 35.8659 25.3273C35.9983 25.5182 36.069 25.7425 36.069 25.9721C36.0693 26.1246 36.0384 26.2756 35.9779 26.4166C35.9175 26.5575 35.8287 26.6856 35.7167 26.7934C35.6048 26.9013 35.4718 26.9867 35.3254 27.0449C35.179 27.1031 35.0222 27.1329 34.8638 27.1326ZM29.6415 27.906C30.2772 27.906 30.8986 28.0875 31.4271 28.4276C31.9556 28.7677 32.3676 29.251 32.6108 29.8166C32.8541 30.3821 32.9177 31.0044 32.7937 31.6047C32.6697 32.2051 32.3636 32.7565 31.9141 33.1894C31.4646 33.6222 30.892 33.917 30.2685 34.0364C29.6451 34.1558 28.9989 34.0945 28.4116 33.8603C27.8243 33.626 27.3224 33.2293 26.9692 32.7204C26.6161 32.2114 26.4276 31.6131 26.4276 31.0009C26.4285 30.1804 26.7674 29.3937 27.3699 28.8135C27.9724 28.2333 28.7894 27.9069 29.6415 27.906ZM29.6415 26.3588C28.6881 26.3588 27.756 26.631 26.9633 27.1411C26.1705 27.6512 25.5526 28.3762 25.1878 29.2245C24.8229 30.0727 24.7274 31.0061 24.9134 31.9066C25.0994 32.8071 25.5586 33.6342 26.2328 34.2834C26.9069 34.9327 27.7659 35.3748 28.701 35.5539C29.6362 35.733 30.6054 35.6411 31.4863 35.2897C32.3672 34.9384 33.1201 34.3434 33.6498 33.58C34.1795 32.8166 34.4622 31.9191 34.4622 31.0009C34.4622 29.7698 33.9543 28.589 33.0503 27.7184C32.1462 26.8479 30.92 26.3588 29.6415 26.3588Z" fill="#274C5B"/>
</g>
</g>
</svg>

<svg width="60" height="61" fill="none" xmlns="http://www.w3.org/2000/svg"><circle cx="30" cy="30.716" r="30" fill="#EFF6F1"/><g fill="#274C5B"><path d="M33.658 23.263a4.109 4.109 0 012.838 1.137 3.81 3.81 0 011.18 2.732v7.736a3.81 3.81 0 01-1.18 2.733 4.109 4.109 0 01-2.838 1.136h-8.034a4.109 4.109 0 01-2.837-1.136 3.809 3.809 0 01-1.18-2.733v-7.736a3.809 3.809 0 011.18-2.732 4.109 4.109 0 012.837-1.137h8.034zm0-1.547h-8.034c-3.093 0-5.624 2.437-5.624 5.416v7.736c0 2.98 2.53 5.416 5.624 5.416h8.034c3.094 0 5.625-2.437 5.625-5.416v-7.736c0-2.979-2.531-5.416-5.625-5.416z"/><path d="M34.864 27.133c-.239 0-.472-.069-.67-.196a1.171 1.171 0 01-.444-.52 1.12 1.12 0 01-.068-.671c.046-.226.161-.432.33-.595a1.22 1.22 0 01.617-.317c.233-.045.476-.022.696.066.22.088.408.237.54.427a1.13 1.13 0 01-.148 1.466 1.244 1.244 0 01-.853.34zm-5.222.773c.635 0 1.257.181 1.785.522.529.34.94.823 1.184 1.389a2.99 2.99 0 01.183 1.788c-.124.6-.43 1.152-.88 1.584a3.254 3.254 0 01-1.646.847 3.33 3.33 0 01-1.856-.176 3.192 3.192 0 01-1.443-1.14 3.014 3.014 0 01-.541-1.72c0-.82.34-1.606.942-2.186a3.281 3.281 0 012.271-.908zm0-1.547c-.954 0-1.886.272-2.679.782a4.684 4.684 0 00-1.775 2.084 4.482 4.482 0 00-.275 2.682c.186.9.646 1.727 1.32 2.376a4.88 4.88 0 002.468 1.27c.935.18 1.904.088 2.785-.263a4.786 4.786 0 002.164-1.71 4.52 4.52 0 00.812-2.58 4.557 4.557 0 00-1.412-3.282 4.917 4.917 0 00-3.408-1.36z"/></g></svg>
